X: 1
T: Avis Harrison's Strathspey
C: \2511993 John Renton
R: air
Z: 2005 John Chambers <jc:trillian.mit.edu>
M: C
L: 1/8
K: D
D>E \
| F3 D A,2 D2 | F>E F<G E2- E>D | C2 c2 c>B A>^G | B2 A2 A>F G<E |
| F3 D A,2 D2 | F>E F<G E2  E>D | C2 c>B A>F G<E | D4 D2 |]
d>c \
| B3 G D>d c>B | B2 A2 A2 F>D | C2 A>_A G>E C<E | G2 F2 F2 d>c |
| B3 G D>d c>B | B2 A2 A>F D<B, | A,2 A>_A G>C F<E | D4 D2 |]
